!!!!SEGMENT: pl-wtm--r-2466--002_hertz-michal--kto-sie-w-opieke.krn
!!!cenid: 18xx:2387
!!!COM: Hertz, Michał
!!!COM-rismID: pe41023359
!!!CDT: 1844/09/28-~1918
!!!CNT: Polish
!!!OTL: Kto się w opiekę
!!!PDT:
!!!AGN:
!!!SMS-siglum: PL-Wtm
!!!SMS-shelfmark: R 2466
!!!SMS-shelfwork: 002 W
!!!SMS-variant:
!!!SMS-altvar:
!!!NIFC-rismSourceID: 1001085507
!!!NIFC-islandoraID:
!!!URL-pdf-islandora:
!!!URL-scan:
!!!ONB-nifc: UWAGA: w zbiorze: 1. Święty Boże, 2. Kto się w opiekę
!!!AIN: 1 empty
!!!key:
**kern	**kern	**text	**text
*part1	*part1	*part1	*part1
*staff2	*staff1	*staff1	*staff1
*Iempty	*Iempty	*	*
*I"	*I"	*	*
*clefF4	*clefG2	*	*
*k[f#c#]	*k[f#c#]	*	*
*D:	*D:	*	*
*M4/4	*M4/4	*	*
*met(c)	*met(c)	*	*
=1	=1	=1	=1
*2\right	*2\right	*	*
2D\ 2F#	2d/ 2a	Kto	śmie-
4AA\ 4E	4c#/ 4a	się	-le
4D\ 4F#	4d/ 4a	w o-	rzec
=2	=2	=2	=2
*^	*	*	*
2G/	(4AA\	2d/ 2b	-pie-	mo-
.	4BB\)	.	.	.
2F#/	2D\	2d/ 2a	-kę	-że
=3	=3	=3	=3	=3
4G/	4G\	4d/ 4b	pod-	mam
4A/	4F#\	4d#X/ 4a	-da	ob-
4E\ 4B	2ryy	4e/ 4g	Pa-	-roń-
4D\ 4G	.	4e/ 4b	-nu	-cę
=4	=4	=4	=4	=4
2A/	(4C#\	((4e/ 4a	swe-	Bo-
.	4E\)	4c#/)) 4g	.	.
2A/	2D\;	2dn;/ 2f#	-mu	-ga
=5	=5	=5	=5	=5
2A/	2D\	2d/ 2a	a	nie
4B/	4BB\	4f#/ 4dd	ca-	przyj-
4c#/	4AA\	4f#/ 4cc#	-łem	-dzie
=6	=6	=6	=6	=6
*	*	*^	*	*
2d/	(4GG\	2b/	(4f#\	ser-	na
.	4GG#X\)	.	4e\)	.	.
!	!	!LO:TX:t=P:problem=2\right&colon; global	!	!	!
2c#/	2AA\	2a/	2e\	-cem	mnie
*	*	*v	*v	*	*
!!linebreak:original
=7	=7	=7	=7	=7
4d/	4GGn\	4g\ 4b	szcze-	żad-
4c#/	4AA\	4e\ 4a	-rze	-na
4B/	4E\	4e\ 4g	u-	stra-
4G/	4D\	4e\ 4b	-fa	-szna
=8	=8	=8	=8	=8
*	*	*^	*	*
2A/	(4C#\	(4a/	(4e\	Je-	trwo-
.	4E\)	4g/)	4c#\)	.	.
2A;/	2D;\	2f#;/	2d\	-mu	-ga
=9	=9	=9	=9	=9	=9
*	*	*	*	*ij	*ij
4F#/	4D\	4a/	4d\	szcze-	żad-
4F#/	4Cn\	4a/	4e\	-rze	-na
8F#/L	4BB\	8b/L	4d#X\	u-	stra-
8B/J	.	8a/J	.	.	.
4B/	4E\	4g/	4e\	-fa	-szna
=10	=10	=10	=10	=10	=10
(4A/	2C#X\	2a/	2e\	Je-	trwo-
4G/)	.	.	.	.	.
2F#/	2D;\	2dn;/	2dn\	-mu	-ga
*	*	*	*	*Xij	*Xij
*v	*v	*	*	*	*
*	*v	*v	*	*
==	==	==	==
*-	*-	*-	*-
!!!system-decoration: {(s1,s2)}
!!!ENC: Tomasz Grochalski
!!!END: 2021-06-10
!!!ENC: Krzysztof Stępień
!!!END: 2021-10-08
!!!YEC: Copyright 2022 Narodowy Instytut Fryderyka Chopina (https://polishscores.org)
!!!YEM: Licence CC BY 4.0 (https://creativecommons.org/licenses/by/4.0)
